img/yith-icon.svg

<svg xmlns="http://www.w3.org/2000/svg" width="20.5" height="20.479"  xmlns:v="https://vecta.io/nano"><defs><clipPath id="A"><path d="M0 0h20.5v20.479H0z"/></clipPath></defs><g clip-path="url(#A)"><path d="M18.24 7.628c-.949.656-2.164 1.343-3.653 2.06.757-2.502 1.178-4.837 1.262-7.004.063-1.745-.716-2.639-2.335-2.681-1.956-.063-3.239 1.03-3.849 3.281a2.65 2.65 0 0 1 1.058-.221.9.9 0 0 1 .736.363c.192.242.277.521.256.836-.02.82-.439 1.699-1.255 2.634S8.918 8.3 8.282 8.3c-.445 0-.657-.378-.636-1.135.021-.4.158-1.21.41-2.43l.347-2.334c0-.694-.179-1.257-.536-1.688S6.994.098 6.321.161C5.858.203 5.175.624 4.27 1.422L2.25 3.254l.726.852c.588-.442.946-.663 1.072-.663.4 0 .589.274.569.82 0 .043-.19.705-.568 1.988s-.578 2.24-.6 2.871c-.042.863.116 1.525.475 1.987.443.568 1.182.81 2.218.726 1.224-.084 2.449-.537 3.674-1.356a10.76 10.76 0 0 0 1.457-1.168c-.168.842-.368 1.557-.6 2.146-2.271 1.03-3.911 1.913-4.921 2.65-1.431 1.03-2.198 2.134-2.303 3.312-.19 2.04.841 3.06 3.092 3.06 1.514 0 2.976-.925 4.385-2.776 1.199-1.577 2.24-3.681 3.123-6.309 1.529-.759 2.821-1.502 3.879-2.23-.034.245.391-1.856.312-1.536zM7.393 16.095c-.337 0-.495-.148-.474-.442.042-.547.989-1.273 2.84-2.177-.968 1.745-1.757 2.619-2.366 2.619z" fill="#fff"/></g></svg>

<?xml version="1.0" standalone="no"?><!-- Generator: Gravit.io --><svg xmlns="http://www.w3.org/2000/svg" xmlns:xlink="http://www.w3.org/1999/xlink" style="isolation:isolate" viewBox="0 0 20.5 20.479" width="20.5" height="20.479"><defs><clipPath id="_clipPath_BBRuGaomYLKjPKjOOHpnNdPxBnLPFPyk"><rect width="20.5" height="20.479"/></clipPath></defs><g clip-path="url(#_clipPath_BBRuGaomYLKjPKjOOHpnNdPxBnLPFPyk)"><g><path d=" M 18.24 7.628 C 17.291 8.284 16.076 8.971 14.587 9.688 C 15.344 7.186 15.765 4.851 15.849 2.684 C 15.912 0.939 15.133 0.045 13.514 0.003 C 11.558 -0.06 10.275 1.033 9.665 3.284 C 10.007 3.137 10.359 3.063 10.723 3.063 C 11.021 3.063 11.267 3.184 11.459 3.426 C 11.651 3.668 11.736 3.947 11.715 4.262 C 11.695 5.082 11.276 5.961 10.46 6.896 C 9.644 7.833 8.918 8.3 8.282 8.3 C 7.837 8.3 7.625 7.922 7.646 7.165 C 7.667 6.765 7.804 5.955 8.056 4.735 C 8.287 3.579 8.403 2.801 8.403 2.401 C 8.403 1.707 8.224 1.144 7.867 0.713 C 7.509 0.282 6.994 0.098 6.321 0.161 C 5.858 0.203 5.175 0.624 4.27 1.422 C 3.596 2.035 2.923 2.644 2.25 3.254 L 2.976 4.106 C 3.564 3.664 3.922 3.443 4.048 3.443 C 4.448 3.443 4.637 3.717 4.617 4.263 C 4.617 4.306 4.427 4.968 4.049 6.251 C 3.671 7.534 3.471 8.491 3.449 9.122 C 3.407 9.985 3.565 10.647 3.924 11.109 C 4.367 11.677 5.106 11.919 6.142 11.835 C 7.366 11.751 8.591 11.298 9.816 10.479 C 10.323 10.142 10.808 9.753 11.273 9.311 C 11.105 10.153 10.905 10.868 10.673 11.457 C 8.402 12.487 6.762 13.37 5.752 14.107 C 4.321 15.137 3.554 16.241 3.449 17.419 C 3.259 19.459 4.29 20.479 6.541 20.479 C 8.055 20.479 9.517 19.554 10.926 17.703 C 12.125 16.126 13.166 14.022 14.049 11.394 C 15.578 10.635 16.87 9.892 17.928 9.164 C 17.894 9.409 18.319 7.308 18.24 7.628 Z  M 7.393 16.095 C 7.056 16.095 6.898 15.947 6.919 15.653 C 6.961 15.106 7.908 14.38 9.759 13.476 C 8.791 15.221 8.002 16.095 7.393 16.095 Z " fill="rgb(255,255,255)"/></g></g></svg>
